X: 15
T: Missa La belle se siet / Sanctus
N: Derived from Ort1003d-Missa_La_belle_se_siet-Sanctus.krn
C: Marbrianus de Orto
%%abc-version 2.0
%%abcx-abcm2ps-target-version 5.9.1 (29 Sep 2008)
%%abc-creator hum2abc beta
%%abcx-conversion-date 2019/02/17 07:28:37
%%abc-edited-by Jesse Rodin
%%abc-edited-by Jesse Rodin 8/10/2013
%%abcx-initial-encoding-date 2013/08/10/
%%humdrum-veritas 2935196781
%%humdrum-veritas-data 1206362880
%%linebreak <none>
%%barnumbers 0
L: 1/4
M: 3/1
Q: 1/2=120
%%staves [1 2 3 4]
V: 1 clef=treble
V: 2 clef=treble-8
V: 3 clef=treble-8
V: 4 clef=bass
K: F
[V:1] F8F4 | 
[V:2] F4F3GA2B2- | 
[V:3] z12 | 
[V:4] z12 | 
[V:1] G4A8 | 
[V:2] B2c3BAGF2c2 | 
[V:3] z12 | 
[V:4] z12 | 
[V:1] A4c4c3B | 
[V:2] d2c4f3ec2- | 
[V:3] z12 | 
[V:4] z12 | 
[V:1] G3AB2A4G2- | 
[V:2] cd_e2d2c3BG2 | 
[V:3] z12 | 
[V:4] z12 | 
[V:1] G2F2B3AF2G2- | 
[V:2] A4G2B3AGF | 
[V:3] z12 | 
[V:4] z12 | 
[V:1] GFD2C2F4E2 | 
[V:2] E2F4A2G4 | 
[V:3] z12 | 
[V:4] z12 | 
[V:1] F4z4A4 | 
[V:2] F4c4d2f2- | 
[V:3] F12- | 
[V:4] F,8D,4 | 
[V:1] B4c2B2A2GF | 
[V:2] fed2c2d3cA2 | 
[V:3] F12 | 
[V:4] B,,4A,,2B,,2D,4 | 
[V:1] E2D4G3FED | 
[V:2] c2d2D4z4 | 
[V:3] G8G4 | 
[V:4] C,2B,,2G,,4C,4 | 
[V:1] C4z2E2F2D2 | 
[V:2] E4F2E2D2F2 | 
[V:3] A12- | 
[V:4] A,,4D,2C,2D,4 | 
[V:1] C2c3BAGF2A2- | 
[V:2] E4F3ED2F2 | 
[V:3] A12 | 
[V:4] A,,4F,,2F,3E,D,2 | 
[V:1] AGF2CDEFG2A2 | 
[V:2] E2A3GE2c4 | 
[V:3] c8c4 | 
[V:4] A,,2F,3E,C,2E,2F,2 | 
[V:1] D4z4z4 | 
[V:2] z2G4G2G4 | 
[V:3] B12- | 
[V:4] G,4_E,8 | 
[V:1] D2G2F2G4B2- | 
[V:2] F2G2d8 | 
[V:3] B12 | 
[V:4] B,,2_E,2D,2G,,2G,3F, | 
[V:1] B2c2B2c3BAG | 
[V:2] _e4d2_e2c4 | 
[V:3] G8G4 | 
[V:4] _E,D,C,2G,,2C,2E,4 | 
[V:1] F4z4z4 | 
[V:2] d4z2c4B2- | 
[V:3] A6G4F2 | 
[V:4] D,2F,3_E,C,2D,4 | 
[V:1] z12 | 
[V:2] B2c4B2c4 | 
[V:3] G6F2G2A2 | 
[V:4] z2_E,4D,2C,4 | 
[V:1] D4E2F2G4 | 
[V:2] F4z4d3e | 
[V:3] B4c2B3AG2 | 
[V:4] B,,4z4z4 | 
[V:1] A3Bc2B4AG | 
[V:2] f4e2d4c2- | 
[V:3] F4z2F2G4 | 
[V:4] D,3C,A,,2B,,2_E,4 | 
[V:1] F2G4F4E2 | 
[V:2] c2_e4B2c4 | 
[V:3] A2B2c2F2G4 | 
[V:4] z2_E,4D,2C,4 | 
[V:1] F4z4z4 | 
[V:2] A2c4d2G2A2- | 
[V:3] F4z4c4 | 
[V:4] z4F,3D,=E,2F,2 | 
[V:1] F8F4 | 
[V:2] A2B2A2c2d2B2 | 
[V:3] d4c2A2B4 | 
[V:4] D,2B,,2F,4B,,2D,2 | 
[V:1] G6A4G2 | 
[V:2] c2B2c4d4 | 
[V:3] z2d2c2A2B4 | 
[V:4] C,2G,,2z4G,4 | 
[V:1] A4z2G2A2B2 | 
[V:2] A2d2D2G2F2G2 | 
[V:3] z2A2B4z2d2 | 
[V:4] F,E,D,C,B,,2_E,2D,2G,,2 | 
[V:1] c3BG4A4 | 
[V:2] C2c2d8 | 
[V:3] c2A2B4z2A2 | 
[V:4] A,,4z4D,4 | 
[V:1] G4z2F2G3A | 
[V:2] d3Bc2d2B2G2 | 
[V:3] B4A4z4 | 
[V:4] G,4F,2D,2_E,3D, | 
[V:1] B4A2B4AG | 
[V:2] F2D2z4d4- | 
[V:3] d4c2d2B4 | 
[V:4] B,,4z4G,,4 | 
[V:1] F4z2F4G2 | 
[V:2] d2A3GFED2G2 | 
[V:3] A2d2c2A2B4 | 
[V:4] D,3C,A,,2D,2B,,2_E,2 | 
[V:1] A4z2F2G2A2 | 
[V:2] D2A2G2Dd2cd2 | 
[V:3] A2c3BA2G2F2 | 
[V:4] F,3_E,C,2D,2E,2D,2 | 
[V:1] B6AGF2G2 | 
[V:2] z2d2_e2d4B2 | 
[V:3] z2G4B2A2G2 | 
[V:4] G,,4z2G,,2D,2_E,2 | 
[V:1] A2G3FF4E2 | 
[V:2] d2B2d4!fermata!c4- | 
[V:3] F2G2A2B2G4 | 
[V:4] D,2_E,2D,2B,,2C,4 | 
[V:1] F12 ||  
[V:2] c12 ||  
[V:3] F12 ||  
[V:4] F,,12 ||  
[V:1]  [K:F] [K:clef=treble][M:2/1]z8 | 
[V:2]  [K:F] [K:clef=treble-8][M:2/1]c4d2c2 | 
[V:3]  [K:F] [K:clef=treble-8][M:2/1]z8 | 
[V:4]  [K:F] [K:clef=bass][M:2/1]F,8 | 
[V:1] z8 | 
[V:2] B4A4 | 
[V:3] z8 | 
[V:4] G,4F,4 | 
[V:1] z8 | 
[V:2] c8 | 
[V:3] z8 | 
[V:4] E,8 | 
[V:1] z8 | 
[V:2] d6c2 | 
[V:3] z8 | 
[V:4] D,8 | 
[V:1] G8 | 
[V:2] B8 | 
[V:3] z8 | 
[V:4] z8 | 
[V:1] A4G4 | 
[V:2] A4z4 | 
[V:3] c8 | 
[V:4] z4E,4 | 
[V:1] F4E4 | 
[V:2] A8 | 
[V:3] d4c4 | 
[V:4] D,4A,,2A,2- | 
[V:1] z8 | 
[V:2] d4d4 | 
[V:3] B8 | 
[V:4] A,2G,F,G,4 | 
[V:1] c8 | 
[V:2] c2F3GA2- | 
[V:3] A8 | 
[V:4] A,3G,F,4 | 
[V:1] d4c4 | 
[V:2] A2G2A4 | 
[V:3] z8 | 
[V:4] B,,4A,,4 | 
[V:1] B4z2A2- | 
[V:2] G4F4 | 
[V:3] d6c2 | 
[V:4] z8 | 
[V:1] A2G2F4 | 
[V:2] z8 | 
[V:3] B4A4 | 
[V:4] z4D,4 | 
[V:1] E4z4 | 
[V:2] G8 | 
[V:3] c4d4 | 
[V:4] C,4B,,4 | 
[V:1] z8 | 
[V:2] E2A4G2 | 
[V:3] c4B4 | 
[V:4] A,,4z4 | 
[V:1] z2E3FGA | 
[V:2] A4c4 | 
[V:3] A4z4 | 
[V:4] z8 | 
[V:1] B2A4c2- | 
[V:2] d4c4 | 
[V:3] z8 | 
[V:4] z8 | 
[V:1] c2d2c2B2- | 
[V:2] z2B2A2G2 | 
[V:3] z8 | 
[V:4] z8 | 
[V:1] B2A3Bcd | 
[V:2] d4c3B | 
[V:3] z8 | 
[V:4] z8 | 
[V:1] B2A2c2B2- | 
[V:2] d3cA2d2- | 
[V:3] z8 | 
[V:4] z8 | 
[V:1] BAd2c2B2- | 
[V:2] dcB2A2d2- | 
[V:3] z8 | 
[V:4] z8 | 
[V:1] BAA4G2 | 
[V:2] d2c2B4 | 
[V:3] z8 | 
[V:4] z8 | 
[V:1] A4z4 | 
[V:2] A4z4 | 
[V:3] z4c4 | 
[V:4] D,4C,2A,,2 | 
[V:1] z8 | 
[V:2] z8 | 
[V:3] d4c4 | 
[V:4] B,,4A,,2A,2- | 
[V:1] z8 | 
[V:2] z8 | 
[V:3] B4A4 | 
[V:4] A,2G,2F,4 | 
[V:1] z8 | 
[V:2] z8 | 
[V:3] c4d2c2 | 
[V:4] E,4z2A,2- | 
[V:1] z8 | 
[V:2] z8 | 
[V:3] B4A2B2- | 
[V:4] A,2G,2A,2D,2- | 
[V:1] z8 | 
[V:2] z8 | 
[V:3] BAA2d4 | 
[V:4] D,2C,2B,,4 | 
[V:1] z8 | 
[V:2] z8 | 
[V:3] c2B3Ac2 | 
[V:4] A,,2D,3C,A,,2 | 
[V:1] z8 | 
[V:2] z8 | 
[V:3] B2A4G2 | 
[V:4] G,,2A,,2B,,4 | 
[V:1] c8 | 
[V:2] E4F4 | 
[V:3] A8 | 
[V:4] A,,8 | 
[V:1] B4A4 | 
[V:2] G2B2c2d2 | 
[V:3] z8 | 
[V:4] z8 | 
[V:1] G2F2G4 | 
[V:2] e2f4e2 | 
[V:3] z8 | 
[V:4] z8 | 
[V:1] F4z4 | 
[V:2] f4z4 | 
[V:3] z2FGABc2 | 
[V:4] z4F,,4 | 
[V:1] z8 | 
[V:2] z8 | 
[V:3] B4A4 | 
[V:4] G,,A,,B,,C,D,E,F,2- | 
[V:1] z8 | 
[V:2] z8 | 
[V:3] G8 | 
[V:4] F,2E,D,E,4 | 
[V:1] c3BA2G2- | 
[V:2] cBAGF2C2 | 
[V:3] F4c4 | 
[V:4] F,4z4 | 
[V:1] G2F4E2 | 
[V:2] D4z2c2- | 
[V:3] B2A2G4 | 
[V:4] z4C,3B,, | 
[V:1] F4C2F2- | 
[V:2] cBAGA2c2 | 
[V:3] z2c3BAG | 
[V:4] A,,G,,F,,2F,3E, | 
[V:1] FED2FEDC | 
[V:2] d4z4 | 
[V:3] F2B3Gc2- | 
[V:4] D,C,B,,2z4 | 
[V:1] D4C2F2 | 
[V:2] z4A2c2- | 
[V:3] c2=B2c2A2 | 
[V:4] G,,4A,,2F,,2 | 
[V:1] EDG4A2 | 
[V:2] c6A2 | 
[V:3] GFEDC2c2 | 
[V:4] C,3D,E,2F,2 | 
[V:1] G2F4c2- | 
[V:2] d2c3de2 | 
[V:3] B2A2G4 | 
[V:4] z4C,3B,, | 
[V:1] cBA2G2F2 | 
[V:2] f3ed2c2- | 
[V:3] F2c2B2A2 | 
[V:4] A,,G,,F,,2z2F,,2 | 
[V:1] E2F4E2 | 
[V:2] c2B2c4- | 
[V:3] G2F2G4 | 
[V:4] C,2D,2C,4 | 
[V:1] F8 ||  
[V:2] c8 ||  
[V:3] F8 ||  
[V:4] F,,8 ||  
[V:1]  [K:F] [K:clef=treble][M:3/1]A6G2F4 | 
[V:2]  [K:F] [K:clef=treble-8][M:3/1]z12 | 
[V:3]  [K:F] [K:clef=treble-8][M:3/1]F12 | 
[V:4]  [K:F] [K:clef=bass][M:3/1]D,8D,4 | 
[V:1] E4D8 | 
[V:2] z12 | 
[V:3] G12 | 
[V:4] C,4B,,8 | 
[V:1] C4z4z4 | 
[V:2] A2B2c2d2e4 | 
[V:3] A12- | 
[V:4] A,,6B,,2C,4 | 
[V:1] F6E2D4 | 
[V:2] d6e2f4 | 
[V:3] A12 | 
[V:4] D,6C,2D,4 | 
[V:1] C4F4E4 | 
[V:2] e4d4c4- | 
[V:3] A12- | 
[V:4] A,,4D,4A,,4 | 
[V:1] C4c6B2 | 
[V:2] c2B2A2G2F4 | 
[V:3] A12 | 
[V:4] F,8F,4 | 
[V:1] A2G2A6G2 | 
[V:2] f6e2d4 | 
[V:3] c8B4 | 
[V:4] F,8G,4 | 
[V:1] G8^F4 | 
[V:2] c4d8 | 
[V:3] G4A8 | 
[V:4] E,4D,8 | 
[V:1] G12 | 
[V:2] B4c6B2 | 
[V:3] G4z4z4 | 
[V:4] z4C,4_E,4- | 
[V:1] B8A2G2 | 
[V:2] G2A2B2c2d4- | 
[V:3] z12 | 
[V:4] E,2D,2B,,6C,2 | 
[V:1] F6G2A4 | 
[V:2] d2c2A2B2c4 | 
[V:3] z12 | 
[V:4] D,2=E,2F,8 | 
[V:1] B4G8 | 
[V:2] d4e8 | 
[V:3] z12 | 
[V:4] B,,4C,8 | 
[V:1] D6E2F4 | 
[V:2] f6e2d4 | 
[V:3] B8B4 | 
[V:4] B,,6C,2D,4 | 
[V:1] G4D2E2F2G2 | 
[V:2] d4z4z4 | 
[V:3] B8A2G2 | 
[V:4] G,,2A,,2B,,2C,2D,2E,2 | 
[V:1] A2B2c8 | 
[V:2] A6B2c4 | 
[V:3] F6G2A4 | 
[V:4] F,6E,2C,4 | 
[V:1] F6E2E2D2 | 
[V:2] d4c8 | 
[V:3] B4G8 | 
[V:4] B,,4C,8 | 
[V:1] F8z4 | 
[V:2] A6B2c4 | 
[V:3] F4z4C4 | 
[V:4] F,,6G,,2A,,4 | 
[V:1] F12 | 
[V:2] F6D2d4 | 
[V:3] D2E2F2G2A2B2 | 
[V:4] B,,4D,8 | 
[V:1] G12 | 
[V:2] _e6d2B2c2 | 
[V:3] c6B2G4 | 
[V:4] C,4_E,8 | 
[V:1] A12- | 
[V:2] d8c4 | 
[V:3] F4E8 | 
[V:4] D,4A,,8 | 
[V:1] A12 | 
[V:2] d4A4c4 | 
[V:3] D4F4E4 | 
[V:4] z4D,4A,,4 | 
[V:1] A12- | 
[V:2] A4d4c2d2 | 
[V:3] F6G2A2D2 | 
[V:4] D,6E,2F,4 | 
[V:1] A12 | 
[V:2] f6e2c4- | 
[V:3] d4c6B2 | 
[V:4] D,4F,4z4 | 
[V:1] c8B4 | 
[V:2] c2B2A2G2d4- | 
[V:3] A2G2F2E2D4 | 
[V:4] z12 | 
[V:1] G4A8 | 
[V:2] d4D8 | 
[V:3] G8^F4 | 
[V:4] z12 | 
[V:1] G4z4z4 | 
[V:2] z12 | 
[V:3] G4B4c4- | 
[V:4] _E,8E,4 | 
[V:1] z12 | 
[V:2] z12 | 
[V:3] c2B2G2A2B4- | 
[V:4] _E,8D,2C,2 | 
[V:1] z12 | 
[V:2] z12 | 
[V:3] B2c2d6c2 | 
[V:4] B,,6C,2D,4 | 
[V:1] z12 | 
[V:2] z12 | 
[V:3] B8A4 | 
[V:4] _E,4C,8 | 
[V:1] B8B4 | 
[V:2] d12- | 
[V:3] B8F4 | 
[V:4] B,,12 | 
[V:1] B8A2G2 | 
[V:2] d4B4c4 | 
[V:3] G8E4 | 
[V:4] z12 | 
[V:1] F6G2A4 | 
[V:2] d8c4 | 
[V:3] D6E2F4 | 
[V:4] B,,8A,,4 | 
[V:1] B4G8 | 
[V:2] d4e4c4- | 
[V:3] G6F2E2D2 | 
[V:4] G,,4C,6B,,2 | 
[V:1] c6B2A2G2 | 
[V:2] c2B2A2G2F2E2 | 
[V:3] C4c6BA | 
[V:4] A,,2G,,2F,,4z4 | 
[V:1] B2A2G6F2 | 
[V:2] D4z4c4 | 
[V:3] G2F2E2D2C4 | 
[V:4] G,,4C,4E,4 | 
[V:1] F8E4 | 
[V:2] B4c8- | 
[V:3] F4G8 | 
[V:4] D,4C,8 | 
[V:1] F12 ||  
[V:2] c12 ||  
[V:3] F12 ||  
[V:4] F,,12 ||  
[V:1]  [K:F] [K:clef=treble][M:2/1]z8 | 
[V:2]  [K:F] [K:clef=treble-8][M:2/1]F6G2 | 
[V:3]  [K:F] [K:clef=treble-8][M:2/1]z8 | 
[V:4]  [K:F] [K:clef=bass][M:2/1]z8 | 
[V:1] z8 | 
[V:2] A6GF | 
[V:3] z8 | 
[V:4] F,,8 | 
[V:1] z8 | 
[V:2] B2AGF2E2 | 
[V:3] z8 | 
[V:4] G,,4A,,4- | 
[V:1] z8 | 
[V:2] C4c4- | 
[V:3] z8 | 
[V:4] A,,4A,,4 | 
[V:1] z8 | 
[V:2] c2BAG4 | 
[V:3] z8 | 
[V:4] C,6B,,2 | 
[V:1] z8 | 
[V:2] z2D4G2- | 
[V:3] z8 | 
[V:4] A,,2G,,2B,,4 | 
[V:1] z8 | 
[V:2] G2FEG2^F2 | 
[V:3] z8 | 
[V:4] A,,8 | 
[V:1] z8 | 
[V:2] G4B4- | 
[V:3] z8 | 
[V:4] G,,8 | 
[V:1] z8 | 
[V:2] B2AGF2G2- | 
[V:3] z8 | 
[V:4] G,,4B,,4 | 
[V:1] z8 | 
[V:2] GFD2C2F2- | 
[V:3] z8 | 
[V:4] C,2B,,2A,,3G,, | 
[V:1] z8 | 
[V:2] FGABc2F2 | 
[V:3] z8 | 
[V:4] F,,3G,,A,,2B,,2- | 
[V:1] z8 | 
[V:2] GFEDE3D | 
[V:3] z8 | 
[V:4] B,,A,,G,,F,,G,,4 | 
[V:1] A8 | 
[V:2] F8 | 
[V:3] c8 | 
[V:4] F,,8 | 
[V:1] A4A4 | 
[V:2] z8 | 
[V:3] d4c4 | 
[V:4] z8 | 
[V:1] D3EFGF2- | 
[V:2] z8 | 
[V:3] B8 | 
[V:4] z8 | 
[V:1] F2EDC4 | 
[V:2] z8 | 
[V:3] A8 | 
[V:4] z8 | 
[V:1] z4C4 | 
[V:2] z8 | 
[V:3] B4A4 | 
[V:4] z8 | 
[V:1] D4E4 | 
[V:2] z8 | 
[V:3] G6FE | 
[V:4] z8 | 
[V:1] F4c4 | 
[V:2] z8 | 
[V:3] D4C2F2- | 
[V:4] z8 | 
[V:1] d2c2B4 | 
[V:2] z8 | 
[V:3] FGA4G2 | 
[V:4] z8 | 
[V:1] A4z2A2- | 
[V:2] z8 | 
[V:3] A2c4d2 | 
[V:4] z8 | 
[V:1] A2G2F4 | 
[V:2] z8 | 
[V:3] c2B4A2- | 
[V:4] z8 | 
[V:1] E4G4 | 
[V:2] z8 | 
[V:3] A2c4B2 | 
[V:4] z8 | 
[V:1] F2E2D4 | 
[V:2] z8 | 
[V:3] A2G4F2- | 
[V:4] z8 | 
[V:1] CDEFG2F2- | 
[V:2] z8 | 
[V:3] F2G2B2A2- | 
[V:4] z8 | 
[V:1] F2B3AGF | 
[V:2] z8 | 
[V:3] A2G4B2- | 
[V:4] z8 | 
[V:1] G2F4E2 | 
[V:2] z8 | 
[V:3] BAGFG4 | 
[V:4] z8 | 
[V:1] F4z4 | 
[V:2] c2c2d2c2- | 
[V:3] F8 | 
[V:4] z8 | 
[V:1] c2c2d2c2- | 
[V:2] c2BAB2A2 | 
[V:3] z8 | 
[V:4] z8 | 
[V:1] c2BAB2A2 | 
[V:2] z8 | 
[V:3] z8 | 
[V:4] F,2F,2G,2F,2- | 
[V:1] z8 | 
[V:2] z8 | 
[V:3] z2c4d2 | 
[V:4] F,2E,D,E,2D,2 | 
[V:1] z4G2A2- | 
[V:2] z8 | 
[V:3] c2BAB2A2 | 
[V:4] F,4z4 | 
[V:1] A2G4FE | 
[V:2] z4c4 | 
[V:3] c4z4 | 
[V:4] z4C,4 | 
[V:1] F2E2z4 | 
[V:2] d2c4BA | 
[V:3] z8 | 
[V:4] B,,2C,2A,,2A,2 | 
[V:1] z8 | 
[V:2] B2A2z2c2- | 
[V:3] z4A4 | 
[V:4] G,2F,4E,D, | 
[V:1] z4z2c2 | 
[V:2] c2d2c2BA | 
[V:3] G2A4GF | 
[V:4] E,2D,2z4 | 
[V:1] B2A4GF | 
[V:2] d4z4 | 
[V:3] G2F2z4 | 
[V:4] z4D,4 | 
[V:1] G2F2z4 | 
[V:2] z8 | 
[V:3] z2A2B2A2- | 
[V:4] E,2D,4C,2 | 
[V:1] z4c4 | 
[V:2] z4z2A2 | 
[V:3] A2G2A4 | 
[V:4] B,,4A,,4 | 
[V:1] d2c2B4 | 
[V:2] B2A3GGF | 
[V:3] z8 | 
[V:4] z8 | 
[V:1] A2c2B2A2 | 
[V:2] cdefg2f2- | 
[V:3] z8 | 
[V:4] z8 | 
[V:1] G4F4 | 
[V:2] f2e2f4 | 
[V:3] z8 | 
[V:4] C,4D,2F,2- | 
[V:1] z8 | 
[V:2] z8 | 
[V:3] c4B2A2- | 
[V:4] F,2E,2D,2C,2- | 
[V:1] z8 | 
[V:2] z8 | 
[V:3] A2GFF2E2 | 
[V:4] C,2B,,A,,G,,4 | 
[V:1] c4B2A2 | 
[V:2] z8 | 
[V:3] F2A2G2c2- | 
[V:4] F,,4z2F,2 | 
[V:1] G4F2E2 | 
[V:2] c4d2G2- | 
[V:3] cBAGA2c2- | 
[V:4] _E,4D,2C,2 | 
[V:1] D4C2F2 | 
[V:2] G2G2A2B2- | 
[V:3] c2B2c2d2 | 
[V:4] G,,4C,2B,,2 | 
[V:1] G2B4A2- | 
[V:2] Bcdef4 | 
[V:3] B4c4 | 
[V:4] G,,2G,2F,4 | 
[V:1] A2G4B2 | 
[V:2] f2_e4d2 | 
[V:3] z2B2c2B2 | 
[V:4] D,2_E,3F,G,2 | 
[V:1] A2G3FF2 | 
[V:2] f2d2c2B2 | 
[V:3] c2B2c2F2 | 
[V:4] F,2G,2C,2D,2 | 
[V:1] GFEDC2F2 | 
[V:2] c2G2A2c2- | 
[V:3] E2C2F3G | 
[V:4] C,3B,,A,,G,,F,,2 | 
[V:1] E2F4E2 | 
[V:2] c2d2c4- | 
[V:3] A2B2G4 | 
[V:4] C,2B,,2C,4 | 
[V:1] F8 ||  
[V:2] c8 ||  
[V:3] F8 ||  
[V:4] F,,8 ||  



